img/logo-htmlacademy.svg

<svg version="1.0" id="Layer_1" xmlns="http://www.w3.org/2000/svg" xmlns:xlink="http://www.w3.org/1999/xlink" x="0px" y="0px" width="26.943px" height="34.09px" viewBox="0 0 26.943 34.09" enable-background="new 0 0 26.943 34.09" xml:space="preserve">
  <path d="M13.62,0.017L13.472,0L0,1.412v24.661l13.472,8.017l13.43-7.99l0.042-0.026V1.412L13.62,0.017z M25.019,12.127L13.495,5.334 l-0.001-0.104L13.407,5.28l-0.088-0.056v0.109L1.925,12.118V3.147l11.547-1.212l11.547,1.212V12.127z M13.405,6.787L24.923,13.5 l-4.479,2.64l-7.093-4.221l-0.013,1.415l5.904,3.513l-0.86,0.507l-5.031-2.992l-0.013,1.415l3.827,2.275l-0.782,0.523l-3.032-1.787 l-0.013,1.413l1.852,1.091l-1.8,1.081L2.034,13.622L13.405,6.787z M1.925,15.127l11.411,6.791l0.015,1.044l-7.941-4.728L5.395,19.65 l7.979,4.796l0.017,1.076l-7.972-4.741l-0.013,1.415l8.021,4.821l0.045,0.026l8.143-4.872v-1.268l-0.011-0.148v-3.761l3.415-2.036 v10.02L13.472,31.85L1.925,24.979V15.127z"/>
</svg>

<svg xmlns="http://www.w3.org/2000/svg" width="26.943" height="34.09" viewBox="0 0 26.943 34.09"><path d="M13.62.017,13.472,0,0,1.412V26.073L13.472,34.09,26.9,26.1l.042-.026V1.412Zm11.4,12.11L13.495,5.334v-.1l-.087.05-.088-.056v.109L1.925,12.118V3.147L13.472,1.935,25.019,3.147ZM13.4,6.787,24.923,13.5l-4.479,2.64-7.093-4.221-.013,1.415,5.9,3.513-.86.507-5.031-2.992-.013,1.415,3.827,2.275-.782.523-3.032-1.787L13.338,18.2l1.852,1.091-1.8,1.081L2.034,13.622Zm-11.48,8.34,11.411,6.791.015,1.044L5.41,18.234,5.395,19.65l7.979,4.8.017,1.076L5.419,20.781,5.406,22.2l8.021,4.821.045.026,8.143-4.872V20.9l-.011-.148V16.994l3.415-2.036v10.02L13.472,31.85,1.925,24.979Z"/></svg>
